light/assets/img/about_me/logo/css-3-logo-svgrepo-com 1.svg

<svg width="800" height="800" viewBox="0 0 800 800" fill="none" xmlns="http://www.w3.org/2000/svg">
<rect width="800" height="800" fill="#1E1E1E"/>
<g style="mix-blend-mode:luminosity" clip-path="url(#clip0_154_2643)">
<path d="M399.654 797.977L168.78 733.884L117.33 156.82H682.67L631.167 733.795L399.654 797.977Z" fill="#264DE4"/>
<path d="M587.074 697.057L631.085 204.004H400V748.919L587.074 697.057Z" fill="#2965F1"/>
<path d="M235.278 418.03L241.62 488.805H400V418.03H235.278ZM222.531 274.781L228.964 345.556H400V274.781H222.531ZM400 601.839L399.69 601.921L320.869 580.638L315.829 524.193H244.782L254.697 635.32L399.674 675.564L400 675.475V601.839Z" fill="#EBEBEB"/>
<path d="M250.38 0H336.098V35.8471H286.227V71.6942H336.102V107.539H250.38V0ZM353.243 0H438.963V31.1712H389.09V37.405H438.963V109.099H353.246V76.3657H403.118V70.1319H353.241L353.243 0ZM456.109 0H541.828V31.1712H491.956V37.405H541.828V109.099H456.109V76.3657H505.981V70.1319H456.111V0H456.109Z" fill="black"/>
<path d="M564.27 418.03L577.046 274.781H399.756V345.556H499.484L493.044 418.03H399.756V488.805H486.907L478.69 580.594L399.754 601.899V675.53L544.846 635.32L545.91 623.362L562.544 437.035L564.27 418.03Z" fill="white"/>
</g>
<defs>
<clipPath id="clip0_154_2643">
<rect width="800" height="800" fill="white"/>
</clipPath>
</defs>
</svg>

<?xml version="1.0" encoding="UTF-8"?>
<svg id="Layer_1" data-name="Layer 1" xmlns="http://www.w3.org/2000/svg" xmlns:xlink="http://www.w3.org/1999/xlink" viewBox="0 0 800 800">
  <defs>
    <style>
      .cls-1 {
        fill: #626262;
      }

      .cls-1, .cls-2, .cls-3, .cls-4, .cls-5, .cls-6 {
        stroke-width: 0px;
      }

      .cls-3 {
        fill: none;
      }

      .cls-4 {
        fill: #fff;
      }

      .cls-7 {
        clip-path: url(#clippath);
      }

      .cls-5 {
        fill: #ebebeb;
      }

      .cls-6 {
        fill: #525252;
      }

      .cls-8 {
        opacity: .3;
      }
    </style>
    <clipPath id="clippath">
      <rect class="cls-3" width="800" height="800"/>
    </clipPath>
  </defs>
  <g class="cls-8">
    <g class="cls-7">
      <g>
        <path class="cls-6" d="M399.65,797.98l-230.87-64.09L117.33,156.82h565.34l-51.5,576.97-231.51,64.18Z"/>
        <path class="cls-1" d="M587.07,697.06l44.01-493.05h-231.09v544.92l187.07-51.86Z"/>
        <path class="cls-5" d="M235.28,418.03l6.34,70.77h158.38v-70.77h-164.72ZM222.53,274.78l6.43,70.77h171.04v-70.77h-177.47ZM400,601.84l-.31.08-78.82-21.28-5.04-56.45h-71.05l9.92,111.13,144.98,40.24.33-.09v-73.64Z"/>
        <path class="cls-2" d="M250.38,0h85.72v35.85h-49.87v35.85h49.88v35.84h-85.72V0ZM353.24,0h85.72v31.17h-49.87v6.23h49.87v71.69h-85.72v-32.73h49.87v-6.23h-49.88V0ZM456.11,0h85.72v31.17h-49.87v6.23h49.87v71.69h-85.72v-32.73h49.87v-6.23h-49.87V0h0Z"/>
        <path class="cls-4" d="M564.27,418.03l12.78-143.25h-177.29v70.77h99.73l-6.44,72.47h-93.29v70.77h87.15l-8.22,91.79-78.94,21.3v73.63l145.09-40.21,1.06-11.96,16.63-186.33,1.73-19.01Z"/>
      </g>
    </g>
  </g>
</svg>
